src/images_karasa_jaga_svg/cmd/32/fontworkshapetype.fontwork-open-circle-curve.svg

<svg height="32" viewBox="0 0 32 32" width="32" xmlns="http://www.w3.org/2000/svg" xmlns:xlink="http://www.w3.org/1999/xlink"><linearGradient id="a"><stop offset="0" stop-color="#7c9fcf"/><stop offset=".5" stop-color="#7c9ece"/><stop offset="1" stop-color="#7b9dcf"/></linearGradient><linearGradient id="b"><stop offset="0" stop-color="#fff"/><stop offset=".53340602" stop-color="#fff"/><stop offset=".9375" stop-color="#f1f1f1"/><stop offset=".96875" stop-color="#eaeaea"/><stop offset="1" stop-color="#dfdfdf"/></linearGradient><linearGradient id="c" gradientUnits="userSpaceOnUse" x1=".019531" x2="127.98047" xlink:href="#a" y1="63.999996" y2="63.999996"/><linearGradient id="d" gradientUnits="userSpaceOnUse" x1="64" x2="64" xlink:href="#b" y1="124" y2="0"/><linearGradient id="e" gradientUnits="userSpaceOnUse" x1="64" x2="64" xlink:href="#b" y1="84" y2=".019531"/><linearGradient id="f" gradientUnits="userSpaceOnUse" x1="64" x2="64" xlink:href="#a" y1="84" y2=".019531"/><g transform="scale(.25)"><path d="m64 .01953125c-16.750244-.0000887-33.397976 6.89407105-45.242188 18.73828075-11.8442097 11.844212-18.73836945 28.491944-18.73828075 45.242188h19.98046875a44 44 0 0 1 44-44 44 44 0 0 1 44 44h19.98047c.00009-16.750244-6.89407-33.397976-18.73828-45.242188-11.844214-11.8442097-28.491946-18.73836945-45.24219-18.73828075z" fill="url(#c)"/><path d="m64 4c-31.791606-.0001685-57.7912956 24.729803-59.8515625 56h12.0527345a48 48 0 0 1 47.798828-44 48 48 0 0 1 47.80469 44h12.04687c-2.06026-31.270197-28.059954-56.0001685-59.85156-56z" fill="url(#d)"/><path d="m20 63.986328a4.0132602 4.0132602 0 0 0 -4.013672 4.013672v12a4.0132602 4.0132602 0 0 0 4.013672 4.013672h88a4.0132602 4.0132602 0 0 0 4.01367-4.013672v-12a4.0132602 4.0132602 0 0 0 -4.01367-4.013672z" fill="url(#f)"/><path d="m20 68h88v12h-88z" fill="url(#e)"/></g></svg>

<?xml version="1.0" encoding="UTF-8" standalone="no"?>
<!-- Created with Inkscape (http://www.inkscape.org/) -->

<svg
   xmlns:dc="http://purl.org/dc/elements/1.1/"
   xmlns:cc="http://creativecommons.org/ns#"
   xmlns:rdf="http://www.w3.org/1999/02/22-rdf-syntax-ns#"
   xmlns:svg="http://www.w3.org/2000/svg"
   xmlns="http://www.w3.org/2000/svg"
   xmlns:xlink="http://www.w3.org/1999/xlink"
   xmlns:sodipodi="http://sodipodi.sourceforge.net/DTD/sodipodi-0.dtd"
   xmlns:inkscape="http://www.inkscape.org/namespaces/inkscape"
   version="1.1"
   id="svg2"
   width="128"
   height="128"
   viewBox="0 0 128 128"
   sodipodi:docname="fontworkshapetype.fontwork-open-circle-curve.svg"
   inkscape:export-filename="/home/rizmut/Dokumen/Rizmut/Github/libreoffice-style-karasa-jaga/build/images_karasa_jaga/cmd/32/fontworkshapetype.fontwork-circle-curve.png"
   inkscape:export-xdpi="24"
   inkscape:export-ydpi="24"
   inkscape:version="0.92.3 (unknown)">
  <metadata
     id="metadata8">
    <rdf:RDF>
      <cc:Work
         rdf:about="">
        <dc:format>image/svg+xml</dc:format>
        <dc:type
           rdf:resource="http://purl.org/dc/dcmitype/StillImage" />
        <dc:title></dc:title>
      </cc:Work>
    </rdf:RDF>
  </metadata>
  <defs
     id="defs6">
    <linearGradient
       id="linearGradient7422">
      <stop
         style="stop-color:#7c9fcf;stop-opacity:1"
         offset="0"
         id="stop7424" />
      <stop
         id="stop5348"
         offset="0.5"
         style="stop-color:#7c9ece;stop-opacity:1" />
      <stop
         id="stop7426"
         offset="1"
         style="stop-color:#7b9dcf;stop-opacity:1" />
    </linearGradient>
    <linearGradient
       id="linearGradient3369">
      <stop
         id="stop3372"
         offset="0"
         style="stop-color:#ffffff;stop-opacity:1;" />
      <stop
         style="stop-color:#ffffff;stop-opacity:1;"
         offset="0.53340602"
         id="stop3374" />
      <stop
         style="stop-color:#f1f1f1;stop-opacity:1;"
         offset="0.9375"
         id="stop3376" />
      <stop
         id="stop3378"
         offset="0.96875"
         style="stop-color:#eaeaea;stop-opacity:1;" />
      <stop
         id="stop3384"
         offset="1"
         style="stop-color:#dfdfdf;stop-opacity:1;" />
    </linearGradient>
    <linearGradient
       inkscape:collect="always"
       xlink:href="#linearGradient7422"
       id="linearGradient856"
       x1="-0.19921875"
       y1="64"
       x2="128.19922"
       y2="64"
       gradientUnits="userSpaceOnUse"
       gradientTransform="matrix(0.9965926,0,0,0.9965926,0.21807117,0.21807117)" />
    <linearGradient
       inkscape:collect="always"
       xlink:href="#linearGradient3369"
       id="linearGradient865"
       x1="64"
       y1="124"
       x2="64"
       y2="0"
       gradientUnits="userSpaceOnUse" />
    <linearGradient
       inkscape:collect="always"
       xlink:href="#linearGradient3369"
       id="linearGradient950"
       x1="64"
       y1="84"
       x2="64"
       y2="0.01953125"
       gradientUnits="userSpaceOnUse" />
    <linearGradient
       inkscape:collect="always"
       xlink:href="#linearGradient7422"
       id="linearGradient954"
       gradientUnits="userSpaceOnUse"
       x1="64"
       y1="84"
       x2="64"
       y2="0.01953125" />
  </defs>
  <sodipodi:namedview
     pagecolor="#ffffff"
     bordercolor="#666666"
     borderopacity="1"
     objecttolerance="10"
     gridtolerance="10"
     guidetolerance="10"
     inkscape:pageopacity="0"
     inkscape:pageshadow="2"
     inkscape:window-width="1366"
     inkscape:window-height="706"
     id="namedview4"
     showgrid="true"
     inkscape:snap-page="true"
     inkscape:snap-global="true"
     inkscape:zoom="2.8284272"
     inkscape:cx="9.6726911"
     inkscape:cy="52.557267"
     inkscape:window-x="0"
     inkscape:window-y="0"
     inkscape:window-maximized="1"
     inkscape:current-layer="svg2"
     inkscape:snap-smooth-nodes="true">
    <inkscape:grid
       type="xygrid"
       id="grid848"
       spacingx="4"
       spacingy="4"
       empspacing="2" />
  </sodipodi:namedview>
  <g
     id="g968">
    <g
       id="g934">
      <path
         id="path20806"
         d="M 64 0.01953125 C 47.249756 0.01944255 30.602024 6.9136023 18.757812 18.757812 C 6.9136023 30.602024 0.01944255 47.249756 0.01953125 64 L 20 64 A 44 44 0 0 1 64 20 A 44 44 0 0 1 108 64 L 127.98047 64 C 127.98056 47.249756 121.0864 30.602024 109.24219 18.757812 C 97.397976 6.9136023 80.750244 0.01944255 64 0.01953125 z "
         style="opacity:1;fill:url(#linearGradient856);fill-opacity:1;stroke:none;stroke-width:6.1673317;stroke-linecap:square;stroke-linejoin:bevel;stroke-miterlimit:4;stroke-dasharray:none;stroke-dashoffset:0;stroke-opacity:1" />
      <path
         id="circle20802"
         d="M 64 4 C 32.208394 3.9998315 6.2087044 28.729803 4.1484375 60 L 16.201172 60 A 48 48 0 0 1 64 16 A 48 48 0 0 1 111.80469 60 L 123.85156 60 C 121.7913 28.729803 95.791606 3.9998315 64 4 z "
         style="opacity:1;fill:url(#linearGradient865);fill-opacity:1;stroke:none;stroke-width:6.06831598;stroke-linecap:square;stroke-linejoin:bevel;stroke-miterlimit:4;stroke-dasharray:none;stroke-dashoffset:0;stroke-opacity:1" />
    </g>
    <g
       id="g960">
      <path
         sodipodi:type="inkscape:offset"
         inkscape:radius="4.0128589"
         inkscape:original="M 20 68 L 20 80 L 108 80 L 108 68 L 20 68 z "
         style="opacity:1;fill:url(#linearGradient954);fill-opacity:1;stroke:none;stroke-width:8;stroke-linecap:round;stroke-linejoin:round;stroke-miterlimit:4;stroke-dasharray:none;stroke-dashoffset:0;stroke-opacity:1"
         id="rect952"
         d="M 20,63.986328 A 4.0132602,4.0132602 0 0 0 15.986328,68 V 80 A 4.0132602,4.0132602 0 0 0 20,84.013672 h 88 A 4.0132602,4.0132602 0 0 0 112.01367,80 V 68 A 4.0132602,4.0132602 0 0 0 108,63.986328 Z" />
      <rect
         style="opacity:1;fill:url(#linearGradient950);fill-opacity:1;stroke:none;stroke-width:8;stroke-linecap:round;stroke-linejoin:round;stroke-miterlimit:4;stroke-dasharray:none;stroke-dashoffset:0;stroke-opacity:1"
         id="rect942"
         width="88"
         height="12"
         x="20"
         y="68" />
    </g>
  </g>
</svg>
